X: 23230
T: Leary's Pound Note
R: polka
M: 2/4
K: Edorian
|:~E2 EF|GA B/c/B/A/|GE EG|FG/F/ ED|
~E2 EF|GA B/c/B/A/|GE FD|E2 E2:|
|:Be ef|ga/g/ fe|dB Bc|de/d/ cd/c/|
Be ef|ga/g/ fe|dB AF|E2 E2:|

